X:1
T:Locus Iste
T:Anton Bruckner (1824-1896)
%%score [ 1 2 3 4 ]
L:1/8
Q:1/4=60
M:4/4
K:C
V:1 treble nm="Soprano"
V:2 treble nm="Alto"
V:3 treble-8 nm="Tenor"
V:4 bass nm="Bass"
V:1
!p! c6 B2 | A4 G2 z2 | z2 G2 A2 E2 |!>(! G3 G F2 z2!>)! |!mf! d6 c2 | c4 B2 z2 | z2!f! d2 e2 g2 | %7
w: Lo- cus|i- ste|a De- o|fa- ctus est,|lo- cus|i- ste|a De- o|
 f3 f e2 z2 | z2!p! f2 f2 e2 | z2 F4 E2 | D6 C2 | B,2 z2 z4 | z2!f! D2 D2 D2 | D3 E (F2 _B2) | %14
w: fa- ctus est|a De- o,|De- o|fa- ctus|est|in- ae- sti-|ma- bi- le _|
 d6 e2 | e2 A2 z4 | z2!ff! E2 E2 E2 | E3 ^F (G2 c2) | e6 ^f2 | ^f2 B2 z4 | z8 |!pp! ^F2 F2 F2 F2 | %22
w: sa- cra-|men- tum,|in- ae- sti-|ma- bi- le _|sa- cra-|men- tum.||ir- re- pre- hen-|
 G3/2 G/ G2 G2 z2 | E2 E2 E2 E2 | =F3/2 F/ F2 F2 z2 |!p! F4 E4 |!mf! A6 G2 | F3 F E4 | (E2 D2) z4 | %29
w: si- bi- lis est,|ir- re- pre- hen-|si- bi- lis est,.|ir- re-|pre- hen-|si- bi- lis|est. _|
!p! c6 B2 | A4 G2 z2 | z2 G2 A2 E2 |!>(! G3 G F2 z2!>)! |!mf! d6 c2 | c4 B2 z2 | z2!f! d2 e2 g2 | %36
w: Lo- cus|i- ste|a De- o|fa- ctus est,|lo- cus|i- ste|a De- o|
 f3 f e2 z2 | z2!p! f2 f2 e2 | z2 F4 E2 | (D6 E2 | F4!f! ^F4 | ^F4) G4 | z8 |!pp! z2 G2 =F2 E2 | %44
w: fa- ctus est,|a De- o,|De- o,|De- *||* o,||a De- o,|
 =F4 D4 | D8- | D4 D4 | E6 z2 |] %48
w: De- o|fa-|* ctus|est.|
V:2
!p! E6 E2 | E4 E2 z2 | z2 E2 E2 E2 |!>(! D3 D D2 z2!>)! |!mf! A6 d2 | d4 d2 z2 | z2 G2 G2 G2 | %7
w: Lo- cus|i- ste|a De- o|fa- ctus est,|lo- cus|i- ste|a De- o|
 G3 G G2 z2 | z2!p! G2 G2 G2 | z2 D4 C2 | B,4 G,4 | G,2 z2 z4 | z2!f! D2 D2 D2 | D3 D (D2 F2) | %14
w: fa- ctus est,|a De- o,|De- o|fa- ctus|est|in ae- sti-|ma- bi- le _|
 F6 G2 | A2 E2 z4 |!ff! z2 E2 E2 E2 | E3 E (E2 G2) | G6 A2 | B2 ^F2 z4 | z8 |!pp! E2 E2 ^D2 D2 | %22
w: sa- cra-|men- tum,|in ae- sti-|ma- bi- le _|sa- cra-|men- tum||ir- re- pre- hen-|
 =D3/2 D/ D2 D2 z2 | D2 D2 ^C2 C2 | =C3/2 C/ C2 C2 z2 |!p! B,4 C4 |!mf! C6 C2 | C2 B,2 C4 | %28
w: si- bi- lis est,|ir- re- pre- hen-|si- bi- lis est,|ir- re-|pre- hen-|si- bi- lis|
 (C2 B,2) z4 |!p! E6 E2 | E4 E2 z2 | z2 E2 E2 E2 |!>(! D3 D D2 z2!>)! |!mf! ^F6 F2 | ^F4 G2 z2 | %35
w: est. _|Lo- cus|i- ste|a De- o|fa- ctus est,|lo- cus|i- ste|
 z2!f! G2 G2 G2 | G3 G G2 z2 |!p! z2 G2 G2 G2 | z2 D4 C2 | C2 B,2 (_B,4 | B,2) A,2!f! (C4 | %41
w: a De- o|fa- ctus est,|a De- o,|De- o|De- * *||
 C4) =B,4 | z8 | z2!pp! C2 B,2 C2 | C4 C4 | (C8 | B,4) B,4 | C6 z2 |] %48
w: * o,||a De- o,|De- o|fa-|* ctus|est.|
V:3
!p! G6 G2 | c4 c2 z2 | z2 c2 c2 c2 |!>(! A3 A A2 z2!>)! |!mf! A6 d2 | d4 d2 z2 | z2 B2 c2 d2 | %7
w: Lo- cus|i- ste|a De- o|fa- ctus est,|lo- cus|i- ste|a De- o|
 d3 d c2 z2 | z2!p! d2 d2 c2 | z2 G4 G2 | F4 E4 | D2 z2 z4 | z2!f! D2 _B2 c2 | d3 d d4 | d6 d2 | %15
w: fa- ctus est,|a De- o,|De- o|fa- ctus|est|in ae- sti-|ma- bi- le|sa- cra-|
 d2 ^c2 z4 |!ff! z2 E2 =c2 d2 | e3 e e4 | e6 e2 | e2 ^d2 z4 |!pp! c2 c2 c2 c2 | B3/2 B/ B2 B2 z2 | %22
w: men- tum|in- ae- sti-|ma- bi- le|sa- cra-|men- tum|ir- re- pre- hen-|si- bi- lis est,|
 _B2 B2 B2 B2 | A3/2 A/ A2 A2 z2 | _A2 A2 A2 A2 | G3/2 G/ G2 G2 z2 | F2 F2 E2 E2 | D3 D (E2 C2) | %28
w: ir- re- pre- hen-|si- bi- lis est,|ir- re- pre- hen-|si- bi- lis- est,|ir- re- pre- hen-|si- bi- lis _|
 G4 z4 |!p! G6 G2 | c4 c2 z2 | z2 c2 c2 c2 |!>(! A3 A A2 z2!>)! |!mf! A6 d2 | d4 d2 z2 | %35
w: est.|Lo- cus|i- ste|a De- o|fa- ctus est,|lo- cus|i- ste|
 z2!f! B2 c2 d2 | d3 d c2 z2 | z2!p! d2 d2 c2 | z2 G4 G2 | (G8 | F4)!f! (A4 | A4) G4 | z8 | %43
w: a De- o|fa- ctus est,|a De- o,|De- o,|De-||* o,||
 z2!pp! G2 G2 G2 | A4 A4 | G8- | G4 G4 | G6 z2 |] %48
w: a De- o,|De- o|fa-|* ctus|est.|
V:4
!p! C,6 C,2 | C,4 C,2 C,2 | C,6 C,2 |!>(! D,3 D, D,2 z2!>)! |!mf! D,6 D,2 | G,,4 G,,2!f! G,2 | %6
w: Lo- cus|i- ste a|De- o|fa- ctus est,|lo- cus|i- ste a|
 (F,4 E,2) B,,2 | C,3 C, C,2!p! C,2 | B,,4 C,4 | B,,4 C,4 | G,,4 G,,4 | G,,2!f! G,,2 G,,2 A,,2 | %12
w: De- * o|fa- ctus est, a|De- o,|De- o|fa- ctus|est in ae- sti-|
 _B,,3 D, (G,2 A,2) | _B,6 B,2 | (_B,4 _B,,4) | A,,2!ff! A,,2 A,,2 =B,,2 | C,3 E, (A,2 B,2) | %17
w: ma- bi- le _|sa- cra-|men- *|tum, in- ae- sti-|ma- bi- le _|
 C6 C2 | (C4 C,4) | B,,4 z4 | z8 | z8 | z8 | z8 | z8 | z8 | z8 | z8 | z8 |!p! C,6 C,2 | %30
w: sa- cra-|men- *|tum.||||||||||Lo- cus|
 C,4 C,2 C,2 | C,6 C,2 |!>(! D,3 D, D,2 z2!>)! |!mf! D,6 D,2 | G,,4 G,,2!f! G,2 | (F,4 E,2) B,,2 | %36
w: i- ste a|De- o|fa- ctus est,|lo- cus|i- ste a|De- * o|
 C,3 C, C,2!p! C,2 | B,,4 C,4 | B,,4 C,4 | (G,,4 G,2 ^C,2 | D,6!f! ^D,2 | E,4) E,4 | z8 | %43
w: fa- ctus est, a|De- o,|De- o,|De- * *||* o,||
!pp! z2 E,2 D,2 C,2 | F,,4 ^F,,4 | G,,8- | G,,4 G,,4 | C,6 z2 |] %48
w: a De- o,|De- o|fa-|* ctus|est.|

